X:95
T:Minuet,A. JaW.095
M:3/4
L:1/4
Q:3/4=40
S:James Winder Ms, Lancashire, 1835-41
R:.Minuet
O:England
A:Wyresdale,Lancashire
Z:vmp.Chris Partington, Aug 2004
K:C
GcB|cAe|BcA|B/A/^G/F/ E2|AcB|cAB|(c/d/)d2|e3:|!
|:ege|dgd|ege|dgd|fed|gcf|(f/e/)d2|c3|!
cec|BeB|cec|BeB|cBA|fea|(c/B/)B2|A3:|

